!!!OTL: 32. Skotshne
!!!Genre:	Skotshne
!!!Mode:	Freygish
!!!Listening/dance:	listening
!!!:	*C:; *c:dor
!!!One_Mode:	no
**kern
*thru
*I"P1
*clefG2
*k[b-e-a-]
*C:
!LO:TX:a:i:t=C-major
=18!|:
*k[]
[4een
16eeLL]
16g
16cc
16ddJJ
=19
[4ee
16eeLL]
16g
16cc
16ddJJ
=20
16eeLL
16ff
16ff#X
16ggJJ
(16aaLL
16gg)
(16gg
16ff#JJ)
=21
2gg
!!!End-Modulation
!!!Begin-Modulation
*C:
!LO:TX:a:i:t=C-major
=18!|:
*k[]
[4een
16eeLL]
16g
16cc
16ddJJ
=19
[4ee
16eeLL]
16g
16cc
16ddJJ
=20
16eeLL
16ff
16ff#X
16ggJJ
(16aaLL
16gg)
(16gg
16ff#JJ)
=21
2gg
!!!End-Modulation
!!!Begin-Modulation
*-
